X:1
T:The Last, Fierce Charge
M:6/8
L:1/8
K:G
 ABA| B3 AGD| E3 ABe| dB d3 z|
M:3/8
 AB e/2e/2|
M:6/8
 d3 Bdd| G3 z2 A| B3 AG D/2D/2| E3||
